public/images/modals/export/warning.svg

<svg width="208" height="105" viewBox="0 0 208 105" fill="none" xmlns="http://www.w3.org/2000/svg">
<path d="M133.032 68.12L144.618 56.5336C146.98 54.1717 146.98 50.3423 144.618 47.9804L109.336 12.6985C106.974 10.3366 103.145 10.3366 100.783 12.6985L65.5011 47.9804C63.1392 50.3423 63.1392 54.1717 65.5011 56.5336L100.783 91.8155C103.145 94.1774 106.974 94.1774 109.336 91.8155L121.692 79.46M128.496 72.656L125.812 75.3392" stroke="#FC9F0F" stroke-width="2" stroke-linecap="round" stroke-linejoin="round"/>
<path d="M91.0735 15.9939L98.6447 8.42271C102.188 4.87986 107.932 4.87986 111.474 8.42271L148.895 45.8429C152.438 49.3858 152.438 55.1299 148.895 58.6727L111.474 96.0929C107.932 99.6358 102.188 99.6358 98.6447 96.0929L61.2245 58.6727C57.6816 55.1299 57.6816 49.3858 61.2245 45.8429L74.8195 32.2479M88.0495 19.0179L78.2215 28.8459" stroke="#FC9F0F" stroke-width="2" stroke-linecap="round" stroke-linejoin="round"/>
<path d="M102.06 39.6263C102.06 37.6279 103.68 36.0078 105.678 36.0078C107.677 36.0078 109.297 37.6279 109.297 39.6263V53.4819C109.297 55.4803 107.677 57.1004 105.678 57.1004C103.68 57.1004 102.06 55.4803 102.06 53.4819V39.6263ZM102.06 65.0282C102.06 63.0297 103.68 61.4097 105.678 61.4097C107.677 61.4097 109.297 63.0297 109.297 65.0282C109.297 67.0266 107.677 68.6467 105.678 68.6467C103.68 68.6467 102.06 67.0266 102.06 65.0282Z" fill="#F7FAFB" stroke="#212225" stroke-width="2"/>
<path d="M30.5609 16.0058H32.5609V9.00578L39.5609 9.00578V7.00578L32.5609 7.00578V0.00577562L30.5609 0.00577545V7.00578L23.5609 7.00577V9.00577L30.5609 9.00578L30.5609 16.0058Z" fill="#DBDEE5"/>
<path d="M73.5609 104.006H75.5609V97.0058H82.5609L82.561 95.0058H75.5609V88.0058H73.5609V95.0058H66.5609V97.0058H73.5609V104.006Z" fill="#DBDEE5"/>
<path d="M7.55958 104.004H9.55958L9.55958 97.004H16.5596V95.004H9.55958L9.55958 88.004H7.55958L7.55958 95.004H0.559571L0.55957 97.004H7.55958L7.55958 104.004Z" fill="#DBDEE5"/>
<path d="M29.5596 104.004L31.5596 104.004L31.5596 97.004H38.5596V95.004H31.5596L31.5596 88.004L29.5596 88.004L29.5596 95.004H22.5596V97.004H29.5596L29.5596 104.004Z" fill="#DBDEE5"/>
<path d="M29.5596 82.0041L31.5596 82.0041L31.5596 75.0041H38.5596V73.0041H31.5596L31.5596 66.0041L29.5596 66.0041L29.5596 73.0041H22.5596V75.0041H29.5596L29.5596 82.0041Z" fill="#DBDEE5"/>
<path d="M52.0596 82.0041H54.0596V75.0041H61.0597V73.0041H54.0596V66.0041H52.0596V73.0041H45.0596V75.0041H52.0596V82.0041Z" fill="#DBDEE5"/>
<path d="M52.0593 16.0039H54.0593V9.00391H61.0593V7.00391L54.0593 7.00391V0.00390642L52.0593 0.00390625V7.00391L45.0593 7.00391V9.00391H52.0593V16.0039Z" fill="#DBDEE5"/>
<path d="M52.0595 38.0039H54.0595V31.0039L61.0595 31.0039V29.0039H54.0595V22.0039H52.0595V29.0039L45.0595 29.0039V31.0039L52.0595 31.0039V38.0039Z" fill="#DBDEE5"/>
<path d="M73.5595 16.0039H75.5595L75.5595 9.00393L82.5595 9.00393V7.00393L75.5595 7.00393V0.00393498L73.5595 0.00393463V7.00393L66.5595 7.00393V9.00393L73.5595 9.00393V16.0039Z" fill="#DBDEE5"/>
<path d="M30.5609 16.0058H32.5609V9.00578L39.5609 9.00578V7.00578L32.5609 7.00578V0.00577562L30.5609 0.00577545V7.00578L23.5609 7.00577V9.00577L30.5609 9.00578L30.5609 16.0058Z" fill="#DBDEE5"/>
<path d="M73.5609 104.006H75.5609V97.0058H82.5609L82.561 95.0058H75.5609V88.0058H73.5609V95.0058H66.5609V97.0058H73.5609V104.006Z" fill="#DBDEE5"/>
<path d="M7.55958 104.004H9.55958L9.55958 97.004H16.5596V95.004H9.55958L9.55958 88.004H7.55958L7.55958 95.004H0.559571L0.55957 97.004H7.55958L7.55958 104.004Z" fill="#DBDEE5"/>
<path d="M29.5596 104.004L31.5596 104.004L31.5596 97.004H38.5596V95.004H31.5596L31.5596 88.004L29.5596 88.004L29.5596 95.004H22.5596V97.004H29.5596L29.5596 104.004Z" fill="#DBDEE5"/>
<path d="M29.5596 82.0041L31.5596 82.0041L31.5596 75.0041H38.5596V73.0041H31.5596L31.5596 66.0041L29.5596 66.0041L29.5596 73.0041H22.5596V75.0041H29.5596L29.5596 82.0041Z" fill="#DBDEE5"/>
<path d="M52.0596 82.0041H54.0596V75.0041H61.0597V73.0041H54.0596V66.0041H52.0596V73.0041H45.0596V75.0041H52.0596V82.0041Z" fill="#DBDEE5"/>
<path d="M52.0593 16.0039H54.0593V9.00391H61.0593V7.00391L54.0593 7.00391V0.00390642L52.0593 0.00390625V7.00391L45.0593 7.00391V9.00391H52.0593V16.0039Z" fill="#DBDEE5"/>
<path d="M52.0595 38.0039H54.0595V31.0039L61.0595 31.0039V29.0039H54.0595V22.0039H52.0595V29.0039L45.0595 29.0039V31.0039L52.0595 31.0039V38.0039Z" fill="#DBDEE5"/>
<path d="M73.5595 16.0039H75.5595L75.5595 9.00393L82.5595 9.00393V7.00393L75.5595 7.00393V0.00393498L73.5595 0.00393463V7.00393L66.5595 7.00393V9.00393L73.5595 9.00393V16.0039Z" fill="#DBDEE5"/>
<path d="M177.442 16.0001H175.442V9.00013L168.442 9.00013V7.00013L175.442 7.00013V0.00013123L177.442 0.000131405V7.00013L184.442 7.00013V9.00013L177.442 9.00013V16.0001Z" fill="#DBDEE5"/>
<path d="M134.441 104H132.441L132.441 97.0001H125.441L125.441 95.0001H132.441L132.441 88.0001H134.441L134.441 95.0001H141.441V97.0001H134.441L134.441 104Z" fill="#DBDEE5"/>
<path d="M200.439 104H198.439V97.0001H191.439V95.0001H198.439V88.0001H200.439V95.0001H207.439V97.0001H200.439V104Z" fill="#DBDEE5"/>
<path d="M178.439 104H176.439V97.0001H169.439V95.0001H176.439V88.0001H178.439V95.0001H185.439V97.0001H178.439V104Z" fill="#DBDEE5"/>
<path d="M178.439 82.0002H176.439V75.0002H169.439V73.0002H176.439V66.0002H178.439V73.0002H185.439V75.0002H178.439V82.0002Z" fill="#DBDEE5"/>
<path d="M155.939 82.0002H153.939V75.0002H146.939V73.0002H153.939V66.0002H155.939V73.0002H162.939V75.0002H155.939V82.0002Z" fill="#DBDEE5"/>
<path d="M155.94 16H153.94V9L146.94 9V7L153.94 7V0L155.94 1.78814e-07V7L162.94 7V9L155.94 9V16Z" fill="#DBDEE5"/>
<path d="M155.94 38H153.939V31H146.939V29L153.939 29V22H155.94V29H162.94V31H155.94V38Z" fill="#DBDEE5"/>
<path d="M134.439 16H132.439V9.00002L125.439 9.00002V7.00002L132.439 7.00002V2.47955e-05H134.439V7.00002H141.439V9.00002H134.439V16Z" fill="#DBDEE5"/>
</svg>

<svg width="208" height="105" fill="none" xmlns="http://www.w3.org/2000/svg"><path d="m133.032 68.12 11.586-11.586a6.048 6.048 0 0 0 0-8.554l-35.282-35.282a6.048 6.048 0 0 0-8.553 0L65.501 47.98a6.048 6.048 0 0 0 0 8.554l35.282 35.282a6.048 6.048 0 0 0 8.553 0l12.356-12.356m6.804-6.804-2.684 2.683" stroke="#FC9F0F" stroke-width="2" stroke-linecap="round" stroke-linejoin="round"/><path d="m91.073 15.994 7.572-7.571a9.071 9.071 0 0 1 12.829 0l37.421 37.42a9.072 9.072 0 0 1 0 12.83l-37.421 37.42a9.071 9.071 0 0 1-12.83 0l-37.42-37.42a9.072 9.072 0 0 1 0-12.83L74.82 32.248m13.23-13.23-9.828 9.828" stroke="#FC9F0F" stroke-width="2" stroke-linecap="round" stroke-linejoin="round"/><path d="M102.06 39.626a3.618 3.618 0 1 1 7.237 0v13.856a3.619 3.619 0 0 1-7.237 0V39.626Zm0 25.402a3.618 3.618 0 1 1 7.237 0 3.618 3.618 0 0 1-7.237 0Z" fill="#F7FAFB" stroke="#212225" stroke-width="2"/><path d="M30.56 16.006h2v-7h7v-2h-7v-7h-2v7h-7v2h7v7ZM73.56 104.006h2v-7h7l.001-2h-7v-7h-2v7h-7v2h7v7ZM7.56 104.004h2v-7h7v-2h-7v-7h-2v7h-7v2h7v7ZM29.56 104.004h2v-7h7v-2h-7v-7h-2v7h-7v2h7v7ZM29.56 82.004h2v-7h7v-2h-7v-7h-2v7h-7v2h7v7ZM52.06 82.004h2v-7h7v-2h-7v-7h-2v7h-7v2h7v7ZM52.06 16.004h2v-7h7v-2h-7v-7h-2v7h-7v2h7v7ZM52.06 38.004h2v-7h7v-2h-7v-7h-2v7h-7v2h7v7ZM73.56 16.004h2v-7h7v-2h-7v-7h-2v7h-7v2h7v7Z" fill="#DBDEE5"/><path d="M30.56 16.006h2v-7h7v-2h-7v-7h-2v7h-7v2h7v7ZM73.56 104.006h2v-7h7l.001-2h-7v-7h-2v7h-7v2h7v7ZM7.56 104.004h2v-7h7v-2h-7v-7h-2v7h-7v2h7v7ZM29.56 104.004h2v-7h7v-2h-7v-7h-2v7h-7v2h7v7ZM29.56 82.004h2v-7h7v-2h-7v-7h-2v7h-7v2h7v7ZM52.06 82.004h2v-7h7v-2h-7v-7h-2v7h-7v2h7v7ZM52.06 16.004h2v-7h7v-2h-7v-7h-2v7h-7v2h7v7ZM52.06 38.004h2v-7h7v-2h-7v-7h-2v7h-7v2h7v7ZM73.56 16.004h2v-7h7v-2h-7v-7h-2v7h-7v2h7v7ZM177.442 16h-2V9h-7V7h7V0h2v7h7v2h-7v7ZM134.441 104h-2v-7h-7v-2h7v-7h2v7h7v2h-7v7ZM200.439 104h-2v-7h-7v-2h7v-7h2v7h7v2h-7v7ZM178.439 104h-2v-7h-7v-2h7v-7h2v7h7v2h-7v7ZM178.439 82h-2v-7h-7v-2h7v-7h2v7h7v2h-7v7ZM155.939 82h-2v-7h-7v-2h7v-7h2v7h7v2h-7v7ZM155.94 16h-2V9h-7V7h7V0h2v7h7v2h-7v7ZM155.94 38h-2.001v-7h-7v-2h7v-7h2.001v7h7v2h-7v7ZM134.439 16h-2V9h-7V7h7V0h2v7h7v2h-7v7Z" fill="#DBDEE5"/></svg>
